X:373
T: FRITZ STEFF DER STEHT HUEBSCH
N: E1559
O: Europa, Mitteleuropa, Deutschland, Kuhlaendchen
R: Staende -, Bauern - Lied, Flachsbrechen, bei der Arbeit
M: 2/4
L: 1/16
K: G
D2 | G2G2B2G2 | d3ed2
B2 | d2d2c2A2 | G2G2B2
D2 | G2G2B2G2 | d3ed2
B2 | d2d2c2A2 | F4G2

@@@ Tune index: 5057
